packages/icons/general/SwapColorful.svg

<svg viewBox="0 0 37 36" xmlns="http://www.w3.org/2000/svg">
    <g>
        <circle cx="18.5" cy="18" r="18" fill="#FFB915" />
        <path
            d="M27.2495 13.001L22.2495 18.001H25.9995C25.9995 22.1385 22.637 25.501 18.4995 25.501C17.237 25.501 16.037 25.1885 14.9995 24.626L13.1745 26.451C14.712 27.426 16.537 28.001 18.4995 28.001C24.0245 28.001 28.4995 23.526 28.4995 18.001H32.2495L27.2495 13.001ZM10.9995 18.001C10.9995 13.8635 14.362 10.501 18.4995 10.501C19.762 10.501 20.962 10.8135 21.9995 11.376L23.8245 9.55098C22.287 8.57598 20.462 8.00098 18.4995 8.00098C12.9745 8.00098 8.49951 12.476 8.49951 18.001H4.74951L9.74951 23.001L14.7495 18.001H10.9995Z"
            fill="white"
        />
    </g>
</svg>

<svg xmlns="http://www.w3.org/2000/svg" viewBox="0 0 37 36">
    <circle cx="18.5" cy="18" r="18" fill="#FFB915"/>
    <path fill="#fff" d="m27.25 13.001-5 5H26c0 4.137-3.363 7.5-7.5 7.5a7.338 7.338 0 0 1-3.5-.875l-1.825 1.825a9.914 9.914 0 0 0 5.325 1.55c5.524 0 10-4.475 10-10h3.75l-5-5Zm-16.25 5c0-4.138 3.362-7.5 7.5-7.5 1.262 0 2.462.313 3.5.875l1.825-1.825a9.914 9.914 0 0 0-5.325-1.55c-5.525 0-10 4.475-10 10H4.75l5 5 5-5H11Z"/>
</svg>
